icons/smiley-24.svg

<svg width="24" height="24" viewBox="0 0 24 24" fill="none" xmlns="http://www.w3.org/2000/svg">
<path d="M8.45625 14.4938C8.78603 14.2465 9.25323 14.3118 9.50267 14.6391C9.50961 14.6478 9.51678 14.6563 9.52403 14.6648C9.54482 14.689 9.58016 14.7285 9.62993 14.7783C9.72986 14.8782 9.88544 15.0171 10.0957 15.1573C10.5134 15.4357 11.1445 15.7188 12 15.7188C12.8555 15.7188 13.4866 15.4357 13.9043 15.1573C14.1146 15.0171 14.2701 14.8782 14.3701 14.7783C14.4198 14.7285 14.4552 14.689 14.476 14.6648C14.4832 14.6563 14.4904 14.6478 14.4973 14.6391C14.7468 14.3118 15.214 14.2465 15.5437 14.4938C15.8751 14.7423 15.9423 15.2124 15.6937 15.5438L15.6673 15.5778C15.6542 15.5942 15.6367 15.6155 15.6148 15.641C15.5712 15.6919 15.5098 15.7598 15.4307 15.839C15.2728 15.9969 15.0417 16.2018 14.7363 16.4053C14.1227 16.8144 13.207 17.2188 12 17.2188C10.793 17.2188 9.87726 16.8144 9.26366 16.4053C8.9583 16.2018 8.72716 15.9969 8.56927 15.839C8.45054 15.7202 8.37204 15.627 8.33268 15.5778C8.0744 15.2463 8.10967 14.7537 8.45625 14.4938Z" fill="#24292E"/>
<path fill-rule="evenodd" clip-rule="evenodd" d="M12 1C5.92487 1 1 5.92487 1 12C1 18.0751 5.92487 23 12 23C18.0751 23 23 18.0751 23 12C23 5.92487 18.0751 1 12 1ZM2.5 12C2.5 6.75329 6.75329 2.5 12 2.5C17.2467 2.5 21.5 6.75329 21.5 12C21.5 17.2467 17.2467 21.5 12 21.5C6.75329 21.5 2.5 17.2467 2.5 12Z" fill="#24292E"/>
<path d="M9 10.75C9 11.4404 8.44036 12 7.75 12C7.05964 12 6.5 11.4404 6.5 10.75C6.5 10.0596 7.05964 9.5 7.75 9.5C8.44036 9.5 9 10.0596 9 10.75Z" fill="#24292E"/>
<path d="M16.25 12C16.9404 12 17.5 11.4404 17.5 10.75C17.5 10.0596 16.9404 9.5 16.25 9.5C15.5596 9.5 15 10.0596 15 10.75C15 11.4404 15.5596 12 16.25 12Z" fill="#24292E"/>
</svg>

<svg xmlns="http://www.w3.org/2000/svg" width="24" height="24" viewBox="0 0 24 24"><path d="M8.456 14.494a.75.75 0 011.068.17 3.08 3.08 0 00.572.492A3.381 3.381 0 0012 15.72c.855 0 1.487-.283 1.904-.562a3.081 3.081 0 00.572-.492l.021-.026a.75.75 0 011.197.905l-.027.034c-.013.016-.03.038-.052.063-.044.05-.105.119-.184.198a4.569 4.569 0 01-.695.566A4.88 4.88 0 0112 17.22a4.88 4.88 0 01-2.736-.814 4.57 4.57 0 01-.695-.566 3.253 3.253 0 01-.236-.261c-.259-.332-.223-.824.123-1.084z"/><path fill-rule="evenodd" d="M12 1C5.925 1 1 5.925 1 12s4.925 11 11 11 11-4.925 11-11S18.075 1 12 1zM2.5 12a9.5 9.5 0 1119 0 9.5 9.5 0 01-19 0z"/><path d="M9 10.75a1.25 1.25 0 11-2.5 0 1.25 1.25 0 012.5 0zM16.25 12a1.25 1.25 0 100-2.5 1.25 1.25 0 000 2.5z"/></svg>
